basket.svg

<svg fill="currentColor" viewBox="0 0 24 24"><path d="M5.5 21c-.78 0-1.46-.45-1.79-1.1L1.1 10.44 1 10a1 1 0 0 1 1-1h4.58l4.6-6.57a.997.997 0 0 1 1.65.01L17.42 9H22a1 1 0 0 1 1 1l-.04.29-2.67 9.61c-.33.65-1.01 1.1-1.79 1.1zM12 4.74 9 9h6zM12 13a2 2 0 0 0-2 2 2 2 0 0 0 2 2 2 2 0 0 0 2-2 2 2 0 0 0-2-2"/></svg>

<svg  viewBox="0 0 24 24" fill="currentColor"><path  d="M5.5,21C4.72,21 4.04,20.55 3.71,19.9V19.9L1.1,10.44L1,10A1,1 0 0,1 2,9H6.58L11.18,2.43C11.36,2.17 11.66,2 12,2C12.34,2 12.65,2.17 12.83,2.44L17.42,9H22A1,1 0 0,1 23,10L22.96,10.29L20.29,19.9C19.96,20.55 19.28,21 18.5,21H5.5M12,4.74L9,9H15L12,4.74M12,13A2,2 0 0,0 10,15A2,2 0 0,0 12,17A2,2 0 0,0 14,15A2,2 0 0,0 12,13Z"/></svg>
